dist/img/icons/main/advantages/cards.svg

<svg width="70" height="70" viewBox="0 0 70 70" fill="none" xmlns="http://www.w3.org/2000/svg">
<g clip-path="url(#clip0_57_165)">
<path d="M60.0792 21.0814H5.89016C2.64225 21.0814 0 23.7237 0 26.9716V57.6003C0 60.848 2.64225 63.4904 5.89016 63.4904H60.0792C63.327 63.4904 65.9694 60.8482 65.9694 57.6003V26.9716C65.9694 23.7237 63.327 21.0814 60.0792 21.0814ZM63.6133 57.6013C63.6133 59.5497 62.0276 61.1354 60.0792 61.1354H5.89016C3.94177 61.1354 2.35609 59.5497 2.35609 57.6013V26.9727C2.35609 25.0243 3.94177 23.4386 5.89016 23.4386H60.0792C62.0276 23.4386 63.6133 25.0243 63.6133 26.9727V57.6013Z" fill="#007AFF"/>
<path d="M18.8483 26.9719H7.06811C6.41788 26.9719 5.89014 27.4997 5.89014 28.1499V37.5741C5.89014 38.2256 6.41788 38.7521 7.06811 38.7521H18.8483C19.4985 38.7521 20.0263 38.2255 20.0263 37.5741V28.1499C20.0264 27.4997 19.4987 26.9719 18.8483 26.9719ZM17.6703 36.396H8.24609V29.3279H17.6703V36.396Z" fill="#007AFF"/>
<path d="M10.6022 31.6845H7.06818V34.0406H10.6022V31.6845Z" fill="#007AFF"/>
<path d="M18.8484 31.6845H15.3143V34.0406H18.8484V31.6845Z" fill="#007AFF"/>
<path d="M53.011 43.4644C49.113 43.4644 45.9429 46.6345 45.9429 50.5325C45.9429 54.4305 49.113 57.6006 53.011 57.6006C56.909 57.6006 60.0791 54.4305 60.0791 50.5325C60.0791 46.6345 56.9092 43.4644 53.011 43.4644ZM53.011 55.2447C50.4122 55.2447 48.299 53.1313 48.299 50.5326C48.299 47.9339 50.4124 45.8206 53.011 45.8206C55.6096 45.8206 57.7231 47.934 57.7231 50.5326C57.7232 53.1313 55.6098 55.2447 53.011 55.2447Z" fill="#007AFF"/>
<path d="M45.9429 43.4644C42.0449 43.4644 38.8748 46.6345 38.8748 50.5325C38.8748 54.4305 42.0449 57.6006 45.9429 57.6006C49.8409 57.6006 53.011 54.4305 53.011 50.5325C53.011 46.6345 49.8411 43.4644 45.9429 43.4644ZM45.9429 55.2447C43.3441 55.2447 41.2308 53.1313 41.2308 50.5326C41.2308 47.9339 43.3443 45.8206 45.9429 45.8206C48.5417 45.8206 50.655 47.934 50.655 50.5326C50.6551 53.1313 48.5417 55.2447 45.9429 55.2447Z" fill="#007AFF"/>
<path d="M12.9583 45.8198H5.89014V48.1759H12.9583V45.8198Z" fill="#007AFF"/>
<path d="M24.7386 45.8198H17.6704V48.1759H24.7386V45.8198Z" fill="#007AFF"/>
<path d="M36.5186 45.8198H29.4505V48.1759H36.5186V45.8198Z" fill="#007AFF"/>
<path d="M36.5188 52.8884H5.89014V55.2445H36.5188V52.8884Z" fill="#007AFF"/>
<path d="M65.0364 15.1726L11.5293 6.58467C8.32391 6.0676 5.29761 8.26578 4.78519 11.4712L2.88861 23.2514L5.21517 23.626L7.11175 11.8446C7.41923 9.91968 9.23802 8.60266 11.1572 8.91014L64.6642 17.4992C66.5868 17.8043 67.9026 19.6161 67.6011 21.5374C67.5999 21.5446 67.5988 21.5528 67.5975 21.5599L63.6263 46.8154L65.9553 47.1818L69.9229 21.9356C69.9241 21.9285 69.9252 21.9215 69.9264 21.9144C70.4364 18.7067 68.2429 15.6826 65.0364 15.1726Z" fill="#007AFF"/>
<path d="M44.7649 28.1515H42.4088V32.8635H44.7649V28.1515Z" fill="#007AFF"/>
<path d="M49.4771 28.1515H47.121V32.8635H49.4771V28.1515Z" fill="#007AFF"/>
<path d="M54.1892 28.1515H51.8331V32.8635H54.1892V28.1515Z" fill="#007AFF"/>
<path d="M58.9013 28.1515H56.5452V32.8635H58.9013V28.1515Z" fill="#007AFF"/>
<path d="M64.9901 24.0349L64.5928 26.357L68.1271 26.9548L68.5244 24.6327L64.9901 24.0349Z" fill="#007AFF"/>
<path d="M6.09287 14.0323L5.6925 16.354L46.929 23.3846L47.3294 21.063L6.09287 14.0323Z" fill="#007AFF"/>
</g>
<defs>
<clipPath id="clip0_57_165">
<rect width="70" height="70" fill="white"/>
</clipPath>
</defs>
</svg>

<svg width="70" height="70" fill="none" xmlns="http://www.w3.org/2000/svg"><g clip-path="url(#clip0_57_165)" fill="#007AFF"><path d="M60.08 21.081H5.89A5.897 5.897 0 000 26.971v30.63a5.897 5.897 0 005.89 5.89h54.19a5.897 5.897 0 005.89-5.89V26.97a5.897 5.897 0 00-5.89-5.89zm3.533 36.52a3.539 3.539 0 01-3.534 3.534H5.89a3.538 3.538 0 01-3.534-3.534V26.973a3.538 3.538 0 013.534-3.534h54.19a3.539 3.539 0 013.533 3.534V57.6z"/><path d="M18.848 26.972H7.068c-.65 0-1.178.528-1.178 1.178v9.424c0 .652.528 1.178 1.178 1.178h11.78c.65 0 1.178-.527 1.178-1.178V28.15c0-.65-.527-1.178-1.178-1.178zm-1.178 9.424H8.246v-7.068h9.424v7.068z"/><path d="M10.602 31.684H7.068v2.357h3.534v-2.356zm8.246 0h-3.534v2.357h3.534v-2.356zm34.163 11.78a7.075 7.075 0 00-7.068 7.069A7.075 7.075 0 0053.01 57.6a7.075 7.075 0 007.068-7.069 7.075 7.075 0 00-7.068-7.068zm0 11.78a4.717 4.717 0 01-4.712-4.711 4.717 4.717 0 014.712-4.712 4.717 4.717 0 014.712 4.712 4.717 4.717 0 01-4.712 4.712z"/><path d="M45.943 43.464a7.075 7.075 0 00-7.068 7.069 7.075 7.075 0 007.068 7.068 7.075 7.075 0 007.068-7.069 7.075 7.075 0 00-7.068-7.068zm0 11.78a4.717 4.717 0 01-4.712-4.711 4.717 4.717 0 014.712-4.712 4.717 4.717 0 014.712 4.712 4.717 4.717 0 01-4.712 4.712zM12.958 45.82H5.89v2.356h7.068V45.82zm11.781 0H17.67v2.356h7.069V45.82zm11.78 0H29.45v2.356h7.068V45.82zm0 7.068H5.89v2.357h30.63v-2.357zm28.517-37.715L11.53 6.585c-3.205-.517-6.231 1.68-6.744 4.886L2.89 23.251l2.326.375 1.897-11.781a3.54 3.54 0 014.045-2.935l53.507 8.59a3.538 3.538 0 012.937 4.037l-.004.023-3.97 25.255 2.328.367 3.968-25.246.003-.022a5.896 5.896 0 00-4.89-6.741z"/><path d="M44.765 28.151h-2.356v4.713h2.356v-4.712zm4.712 0h-2.356v4.713h2.356v-4.712zm4.713 0h-2.357v4.713h2.356v-4.712zm4.711 0h-2.356v4.713h2.356v-4.712zm6.089-4.116l-.397 2.322 3.534.598.397-2.322-3.534-.598zM6.093 14.032l-.4 2.322 41.236 7.03.4-2.321-41.236-7.03z"/></g><defs><clipPath id="clip0_57_165"><path fill="#fff" d="M0 0h70v70H0z"/></clipPath></defs></svg>
